X:1
T:Refuge, 77.77 D
T:Refuge, 77.77 D
T:Joseph Perry Holbrook, 1862
T:Public Domain Courtesy of the Cyber Hymnal™
C:Joseph Perry Holbrook, 1862
Z:Public Domain
Z:Courtesy of the Cyber Hymnal™
%%score ( 1 2 ) ( 3 4 )
L:1/8
Q:1/4=105
M:3/4
K:D
V:1 treble 
V:2 treble 
V:3 bass 
V:4 bass 
V:1
 F>F | F3 D G>F | (F2 D2) (3(DE)F | G3 B A>G | F4 D>D | (E2- (3E^D)E (3(ED)E | (F2 D2) D>D | %7
 (E2- (3E^D)E (3(EG)F | D4 [FA]>[FA] | [Af]3 [Ge] (3(ed)[GB] | ([FA]2 [DF]2) [Fd]>[GB] | %11
 [FA]3 [DF] [CE]>[DF] | !fermata![EG]4 [DF]>[FA] | [Af]3 [Ge] (3(ed)[GB] | %14
 ([FA]2 [DF]2) [Fd]>[GB] | [FA]3 D [DF]>[CE] | D6 |] %17
V:2
 x2 | x6 | x6 | x6 | x6 | x6 | x6 | x6 | x6 | x4 G2 | x6 | x6 | x6 | x4 G2 | x6 | x3 D x2 | D6 |] %17
V:3
 A,>A, | A,3 F, B,>A, | (A,2 F,2) (3(F,G,)A, | B,3 D C>B, | A,4 F,>F, | %5
 (G,2- (3G,F,)G, (3(G,F,)G, | (A,2 F,2) F,>F, | (G,2- (3G,F,)G, (3(G,B,)A, | F,4 [D,A,]>[D,A,] | %9
 [D,D]3 [D,C] (3:2:2[G,B,]2 [G,,D] | (D2 A,2) [D,A,]>[D,B,] | [D,D]3 [D,A,] [A,,A,]>[A,,D] | %12
 !fermata![A,,C]4 [D,A,]>[D,A,] | [D,D]3 [D,C] (3:2:2[G,B,]2 [G,,D] | (D2 A,2) [D,A,]>[D,B,] | %15
 [D,D]3 [D,F,] [A,,A,]>[A,,G,] | [D,F,]6 |] %17
V:4
 x2 | x6 | x6 | x6 | x6 | x6 | x6 | x6 | x6 | x6 | D,4 x2 | x6 | x6 | x6 | B,,4 x2 | x6 | x6 |] %17

